public/icons/markedListb.svg

<svg width="65" height="65" viewBox="0 0 65 65" fill="none" xmlns="http://www.w3.org/2000/svg">
<path fill-rule="evenodd" clip-rule="evenodd" d="M27.5 55C12.3114 55 0 42.6886 0 27.5C0 12.3114 12.3114 0 27.5 0C42.6886 0 55 12.3114 55 27.5C55 42.6886 42.6886 55 27.5 55ZM27.5 10.3125L10.3125 27.5L27.5 44.6875L44.6875 27.5L27.5 10.3125Z" fill="url(#paint0_linear_1070_1194)" fill-opacity="0.2"/>
<path d="M27.8536 9.95895L27.5 9.60539L27.1464 9.95895L9.95895 27.1464L9.60539 27.5L9.95895 27.8536L27.1464 45.0411L27.5 45.3946L27.8536 45.0411L45.0411 27.8536L45.3946 27.5L45.0411 27.1464L27.8536 9.95895ZM27.5 54.5C12.5875 54.5 0.5 42.4125 0.5 27.5C0.5 12.5875 12.5875 0.5 27.5 0.5C42.4125 0.5 54.5 12.5875 54.5 27.5C54.5 42.4125 42.4125 54.5 27.5 54.5Z" stroke="url(#paint1_linear_1070_1194)"/>
<defs>
<filter id="filter0_b_1070_1194" x="-30" y="-30" width="115" height="115" filterUnits="userSpaceOnUse" color-interpolation-filters="sRGB">
<feFlood flood-opacity="0" result="BackgroundImageFix"/>
<feGaussianBlur in="BackgroundImage" stdDeviation="15"/>
<feComposite in2="SourceAlpha" operator="in" result="effect1_backgroundBlur_1070_1194"/>
<feBlend mode="normal" in="SourceGraphic" in2="effect1_backgroundBlur_1070_1194" result="shape"/>
</filter>
<linearGradient id="paint0_linear_1070_1194" x1="8.39323" y1="32.4642" x2="44.3149" y2="34.4853" gradientUnits="userSpaceOnUse">
<stop stop-color="#CE43FF"/>
<stop offset="1" stop-color="#2DB3FF" stop-opacity="0.9"/>
</linearGradient>
<linearGradient id="paint1_linear_1070_1194" x1="1.28349" y1="45.3723" x2="54.3817" y2="44.533" gradientUnits="userSpaceOnUse">
<stop stop-color="#E42BC8"/>
<stop offset="0.52934" stop-color="#5670FD"/>
<stop offset="1" stop-color="#1DCEF4"/>
</linearGradient>
</defs>
</svg>

<svg width="65" height="65" fill="none" xmlns="http://www.w3.org/2000/svg"><path fill-rule="evenodd" clip-rule="evenodd" d="M27.5 55C12.311 55 0 42.689 0 27.5S12.311 0 27.5 0 55 12.311 55 27.5 42.689 55 27.5 55zm0-44.688L10.312 27.5 27.5 44.688 44.688 27.5 27.5 10.312z" fill="url(#a)" fill-opacity=".2"/><path d="m27.854 9.959-.354-.354-.354.354L9.96 27.146l-.354.354.354.354L27.146 45.04l.354.354.354-.354L45.04 27.854l.354-.354-.354-.354L27.854 9.96zM27.5 54.5c-14.912 0-27-12.087-27-27 0-14.912 12.088-27 27-27 14.913 0 27 12.088 27 27 0 14.913-12.087 27-27 27z" stroke="url(#b)"/><defs><linearGradient id="a" x1="8.393" y1="32.464" x2="44.315" y2="34.485" gradientUnits="userSpaceOnUse"><stop stop-color="#CE43FF"/><stop offset="1" stop-color="#2DB3FF" stop-opacity=".9"/></linearGradient><linearGradient id="b" x1="1.283" y1="45.372" x2="54.382" y2="44.533" gradientUnits="userSpaceOnUse"><stop stop-color="#E42BC8"/><stop offset=".529" stop-color="#5670FD"/><stop offset="1" stop-color="#1DCEF4"/></linearGradient></defs></svg>
